X: 19723
T: Jenny Of The Rolling Hills
R: waltz
M: 3/4
K: Gmajor
|:A,D E|F2 FE FG|FE D4|A2 AF AB|AG F2 A2|
d2 A2 B2|AF DE (3FED|E2 EF A2|A3|
A,D E|F2 FE FG|FE D4|A2 AF AB|AG F2 A2|
d2 A2 cB|AF DF ED|C2 CD EC|1 D3:|2 D6||
|:G2 B3 B|c2 B2 A2|d2 dA BA|FE D2 (3DEF|
G2 B3 B|c2 B2 A2|f3 g fe|d4 BA|
G2 B3 B|c2 B2 A2|f a3 fd|e2 d4|
d2 A2 cB|AF DF ED|C2 CD EC|1 D6:|2 D3||

